X:144
T:Vincent Campbell's Mazurka
T:(with Charlie Lennon's first)
M:3/4
L:1/8
K:G
DG|"G"B2 BA "C"GE|"G"D2 B,D B,D|"C"E2 CE CE|"D"D4 DG|"G"B2 BA "C"GE|"G"D2 B,D B,D|"C"E2 "D"F2 D2|"G"G4:|
DG|"G"B2 Bc dB|"C"cB c2 "D"DF|A2 AD dc|"G"BA B2 DG|B2 Bc dB|"C"cB c2 "D"DF|A2 Ac "D7"BA|"G"G4:|
